assets/icons/rounded-plus-connected.svg

<svg width="84" height="84" viewBox="0 0 84 84" xmlns="http://www.w3.org/2000/svg"><g fill="none" fill-rule="evenodd"><g fill="#000"><path d="M84 23c-4.417 0-8-3.584-8-7.998V8h-7.002C64.58 8 61 4.42 61 0H23c0 4.417-3.584 8-7.998 8H8v7.002C8 19.42 4.42 23 0 23v38c4.417 0 8 3.584 8 7.998V76h7.002C19.42 76 23 79.58 23 84h38c0-4.417 3.584-8 7.998-8H76v-7.002C76 64.58 79.58 61 84 61V23zM59.05 83H43V66.95c5.054-.5 9-4.764 9-9.948V52h5.002c5.18 0 9.446-3.947 9.95-9H83v16.05c-5.054.5-9 4.764-9 9.948V74h-5.002c-5.18 0-9.446 3.947-9.95 9zm-34.1 0H41V66.95c-5.053-.502-9-4.768-9-9.948V52h-5.002c-5.184 0-9.447-3.946-9.95-9H1v16.05c5.053.502 9 4.768 9 9.948V74h5.002c5.184 0 9.447 3.946 9.95 9zm0-82H41v16.05c-5.054.5-9 4.764-9 9.948V32h-5.002c-5.18 0-9.446 3.947-9.95 9H1V24.95c5.054-.5 9-4.764 9-9.948V10h5.002c5.18 0 9.446-3.947 9.95-9zm34.1 0H43v16.05c5.053.502 9 4.768 9 9.948V32h5.002c5.184 0 9.447 3.946 9.95 9H83V24.95c-5.053-.502-9-4.768-9-9.948V10h-5.002c-5.184 0-9.447-3.946-9.95-9zM50 50v7.002C50 61.42 46.42 65 42 65c-4.417 0-8-3.584-8-7.998V50h-7.002C22.58 50 19 46.42 19 42c0-4.417 3.584-8 7.998-8H34v-7.002C34 22.58 37.58 19 42 19c4.417 0 8 3.584 8 7.998V34h7.002C61.42 34 65 37.58 65 42c0 4.417-3.584 8-7.998 8H50z"/></g></g></svg>

<svg width="84" height="84" viewBox="0 0 84 84" fill="none" xmlns="http://www.w3.org/2000/svg">
<path fill-rule="evenodd" clip-rule="evenodd" d="M84 23C79.583 23 76 19.416 76 15.002V8H68.998C64.58 8 61 4.42 61 0H23C23 4.417 19.416 8 15.002 8H8V15.002C8 19.42 4.42 23 0 23V61C4.417 61 8 64.584 8 68.998V76H15.002C19.42 76 23 79.58 23 84H61C61 79.583 64.584 76 68.998 76H76V68.998C76 64.58 79.58 61 84 61V23ZM59.05 83H43V66.95C48.054 66.45 52 62.186 52 57.002V52H57.002C62.182 52 66.448 48.053 66.952 43H83V59.05C77.946 59.55 74 63.814 74 68.998V74H68.998C63.818 74 59.552 77.947 59.048 83H59.05ZM24.95 83H41V66.95C35.947 66.448 32 62.182 32 57.002V52H26.998C21.814 52 17.551 48.054 17.048 43H1V59.05C6.053 59.552 10 63.818 10 68.998V74H15.002C20.186 74 24.449 77.946 24.952 83H24.95ZM24.95 1H41V17.05C35.946 17.55 32 21.814 32 26.998V32H26.998C21.818 32 17.552 35.947 17.048 41H1V24.95C6.054 24.45 10 20.186 10 15.002V10H15.002C20.182 10 24.448 6.053 24.952 1H24.95ZM59.05 1H43V17.05C48.053 17.552 52 21.818 52 26.998V32H57.002C62.186 32 66.449 35.946 66.952 41H83V24.95C77.947 24.448 74 20.182 74 15.002V10H68.998C63.814 10 59.551 6.054 59.048 1H59.05ZM50 50V57.002C50 61.42 46.42 65 42 65C37.583 65 34 61.416 34 57.002V50H26.998C22.58 50 19 46.42 19 42C19 37.583 22.584 34 26.998 34H34V26.998C34 22.58 37.58 19 42 19C46.417 19 50 22.584 50 26.998V34H57.002C61.42 34 65 37.58 65 42C65 46.417 61.416 50 57.002 50H50Z" fill="black" fill-opacity="0.2"/>
</svg>
